co/chevron_duo_up.svg

<svg viewBox="0 0 24 24" fill="none" xmlns="http://www.w3.org/2000/svg" height="1em" width="1em">
  <path d="M7.40299 18.425L5.98999 17.01L12 10.999L18.01 17.01L16.597 18.423L11.997 13.823L7.39699 18.423L7.40299 18.425ZM7.40299 13.001L5.98999 11.585L12 5.575L18.01 11.585L16.597 12.999L11.997 8.399L7.39699 12.999L7.40299 13.001Z" fill="black"/>
</svg>

<svg viewBox="0 0 24 24" fill="none" xmlns="http://www.w3.org/2000/svg" height="1em" width="1em">
  <path d="M7.403 18.425 5.99 17.01 12 10.999l6.01 6.011-1.413 1.413-4.6-4.6-4.6 4.6.006.002Zm0-5.424L5.99 11.585 12 5.575l6.01 6.01-1.413 1.414-4.6-4.6-4.6 4.6.006.002Z" fill="#000"/>
</svg>
